;FLAVOR:Marlin
;TIME:6775
;Filament used: 5.74499m
;Layer height: 0.15
;Generated with Cura_SteamEngine 2.0.0
M104 S210
M109 S210
M82 ;absolute extrusion mode
;Sliced at: Fri 21-05-2021 15:30:27
G21        ;metric values
G90        ;absolute positioning
M82        ;set extruder to absolute mode
M107       ;start with the fan off
G28        ;Home
G1 Z50.0 F9000 ;move the platform down 15mm
G92 E0                  ;zero the extruded length
G1 F200 E2              ;extrude 2mm of feed stock
G92 E0                  ;zero the extruded length again
G1 F5000
M117 Printing...
G92 E0
G1 F3000 E-4.5
;LAYER_COUNT:193
;LAYER:0
M107
G0 F9000 X19.999 Y-9.177 Z0.3
;TYPE:SKIRT
G1 F3000 E0
G1 F1500 X20.161 Y-8.832 E0.01902
G1 X20.377 Y-8.52 E0.03795
G1 X20.65 Y-8.242 E0.05739
G1 X20.999 Y-7.992 E0.0788
G1 X21.246 Y-7.869 E0.09257
G1 X21.589 Y-7.757 E0.11057
G1 X21.939 Y-7.702 E0.12825
G1 X22.481 Y-7.704 E0.15529
G1 X53.512 Y-10.373 E1.70915
G1 X54.063 Y-10.38 E1.73664
G1 X54.609 Y-10.308 E1.76411
G1 X55.139 Y-10.157 E1.79161
G1 X55.642 Y-9.931 E1.81912
G1 X56.273 Y-9.504 E1.85713
G1 X56.4 Y-9.398 E1.86538
G1 X56.796 Y-9.016 E1.89283
G1 X57.133 Y-8.579 E1.92037
G1 X57.403 Y-8.099 E1.94784
G1 X57.601 Y-7.585 E1.97532
G1 X57.751 Y-6.807 E2.01485
G1 X58.16 Y-2.058 E2.25266
G1 X58.167 Y-1.507 E2.28015
G1 X58.095 Y-.961 E2.30763
G1 X57.944 Y-.431 E2.33512
G1 X57.719 Y0.072 E2.36261
G1 X57.291 Y0.703 E2.40065
G1 X57.185 Y0.83 E2.4089
G1 X56.803 Y1.226 E2.43635
G1 X56.366 Y1.563 E2.46389
G1 X55.886 Y1.833 E2.49136
G1 X55.372 Y2.031 E2.51884
G1 X54.594 Y2.181 E2.55837
G1 X23.459 Y4.861 E4.11745
G1 X22.99 Y4.951 E4.14127
G1 X22.675 Y5.064 E4.15797
G1 X22.36 Y5.236 E4.17587
G1 X22.062 Y5.466 E4.19465
G1 X21.822 Y5.725 E4.21227
G1 X21.614 Y6.038 E4.23102
G1 X21.459 Y6.38 E4.24975
G1 X21.366 Y6.729 E4.26777
G1 X21.329 Y7.123 E4.28752
G1 X21.359 Y7.505 E4.30663
G1 X21.465 Y7.917 E4.32786
G1 X21.574 Y8.166 E4.34142
G1 X21.778 Y8.493 E4.36065
G1 X22 Y8.748 E4.37751
G1 X22.404 Y9.086 E4.40379
G1 X47.903 Y26.996 E5.95839
G1 X48.33 Y27.345 E5.9859
G1 X48.702 Y27.752 E6.01341
G1 X49.011 Y28.208 E6.04089
G1 X49.251 Y28.704 E6.06838
G1 X49.462 Y29.448 E6.10696
G1 X49.491 Y29.613 E6.11532
G1 X49.546 Y30.161 E6.1428
G1 X49.522 Y30.712 E6.17032
G1 X49.419 Y31.253 E6.19779
G1 X49.238 Y31.774 E6.22531
G1 X48.858 Y32.455 E6.26421
G1 X46.12 Y36.353 E6.50187
G1 X45.771 Y36.78 E6.52938
G1 X45.364 Y37.152 E6.55689
G1 X44.908 Y37.461 E6.58437
G1 X44.412 Y37.701 E6.61186
G1 X43.668 Y37.912 E6.65044
G1 X43.503 Y37.941 E6.6588
G1 X42.955 Y37.996 E6.68628
G1 X42.404 Y37.972 E6.71379
G1 X41.863 Y37.869 E6.74127
G1 X41.342 Y37.688 E6.76879
G1 X40.661 Y37.308 E6.80769
G1 X15.173 Y19.406 E8.36161
G1 X14.702 Y19.13 E8.38885
G1 X14.381 Y19.006 E8.40601
G1 X14.025 Y18.929 E8.42418
G1 X13.748 Y18.911 E8.43803
G1 X13.319 Y18.952 E8.45953
G1 X12.945 Y19.055 E8.47889
G1 X12.594 Y19.22 E8.49824
G1 X12.294 Y19.426 E8.51639
G1 X12.024 Y19.689 E8.5352
G1 X11.802 Y19.989 E8.55382
G1 X11.639 Y20.305 E8.57156
G1 X11.523 Y20.666 E8.59047
G1 X11.469 Y21.013 E8.60799
G1 X11.47 Y21.351 E8.62486
G1 X11.546 Y21.829 E8.649
G1 X19.588 Y52.02 E10.20776
G1 X19.691 Y52.561 E10.23524
G1 X19.714 Y53.112 E10.26275
G1 X19.658 Y53.66 E10.29023
G1 X19.523 Y54.194 E10.31771
G1 X19.203 Y54.906 E10.35665
G1 X19.12 Y55.049 E10.3649
G1 X18.809 Y55.504 E10.3924
G1 X18.436 Y55.909 E10.41987
G1 X18.008 Y56.257 E10.44739
G1 X17.535 Y56.539 E10.47486
G1 X16.812 Y56.813 E10.51344
G1 X12.206 Y58.041 E10.75126
G1 X11.665 Y58.144 E10.77873
G1 X11.114 Y58.167 E10.80625
G1 X10.566 Y58.111 E10.83373
G1 X10.032 Y57.976 E10.86121
G1 X9.319 Y57.656 E10.9002
G1 X9.176 Y57.573 E10.90845
G1 X8.721 Y57.262 E10.93594
G1 X8.316 Y56.889 E10.96341
G1 X7.968 Y56.461 E10.99093
G1 X7.686 Y55.988 E11.01841
G1 X7.412 Y55.264 E11.05703
G1 X-.634 Y25.066 E12.61617
G1 X-.803 Y24.622 E12.63987
G1 X-.97 Y24.33 E12.65666
G1 X-1.193 Y24.051 E12.67448
G1 X-1.47 Y23.799 E12.69316
G1 X-1.776 Y23.601 E12.71134
G1 X-2.109 Y23.454 E12.7295
G1 X-2.475 Y23.361 E12.74834
G1 X-2.842 Y23.33 E12.76672
G1 X-3.218 Y23.361 E12.78554
G1 X-3.608 Y23.462 E12.80564
G1 X-3.987 Y23.634 E12.8264
G1 X-4.229 Y23.793 E12.84085
G1 X-4.497 Y24.036 E12.8589
G1 X-4.713 Y24.302 E12.87599
G1 X-4.988 Y24.782 E12.90359
G1 X-18.188 Y52.985 E14.45713
G1 X-18.457 Y53.466 E14.48463
G1 X-18.793 Y53.902 E14.51209
G1 X-19.189 Y54.286 E14.53961
G1 X-19.636 Y54.609 E14.56712
G1 X-20.361 Y54.956 E14.60722
G1 X-20.519 Y55.012 E14.61559
G1 X-21.05 Y55.158 E14.64306
G1 X-21.597 Y55.225 E14.67055
G1 X-22.148 Y55.213 E14.69805
G1 X-22.691 Y55.121 E14.72553
G1 X-23.398 Y54.872 E14.76292
G1 X-27.713 Y52.854 E15.00058
G1 X-28.194 Y52.585 E15.02807
G1 X-28.631 Y52.249 E15.05558
G1 X-29.014 Y51.854 E15.08302
G1 X-29.337 Y51.407 E15.11054
G1 X-29.685 Y50.681 E15.1507
G1 X-29.741 Y50.523 E15.15907
G1 X-29.887 Y49.992 E15.18654
G1 X-29.954 Y49.445 E15.21404
G1 X-29.942 Y48.894 E15.24153
G1 X-29.85 Y48.351 E15.26901
G1 X-29.601 Y47.643 E15.30645
G1 X-16.352 Y19.337 E16.86568
G1 X-16.2 Y18.898 E16.88886
G1 X-16.138 Y18.552 E16.9064
G1 X-16.129 Y18.208 E16.92357
G1 X-16.181 Y17.829 E16.94265
G1 X-16.286 Y17.486 E16.96055
G1 X-16.449 Y17.158 E16.97882
G1 X-16.668 Y16.853 E16.99755
G1 X-16.929 Y16.593 E17.01593
G1 X-17.246 Y16.368 E17.03533
G1 X-17.596 Y16.201 E17.05467
G1 X-18.003 Y16.088 E17.07575
G1 X-18.281 Y16.056 E17.08971
G1 X-18.656 Y16.07 E17.10843
G1 X-18.986 Y16.133 E17.12519
G1 X-19.514 Y16.327 E17.15326
G1 X-47.748 Y29.443 E18.70643
G1 X-48.263 Y29.639 E18.73392
G1 X-48.801 Y29.757 E18.7614
G1 X-49.351 Y29.797 E18.78891
G1 X-49.9 Y29.757 E18.81637
G1 X-50.646 Y29.569 E18.85475
G1 X-50.803 Y29.512 E18.86309
G1 X-51.306 Y29.287 E18.89058
G1 X-51.771 Y28.991 E18.91808
G1 X-52.188 Y28.632 E18.94553
G1 X-52.549 Y28.216 E18.97301
G1 X-52.953 Y27.54 E19.0123
G1 X-54.96 Y23.218 E19.25004
G1 X-55.155 Y22.703 E19.27751
G1 X-55.273 Y22.165 E19.30499
G1 X-55.313 Y21.616 E19.33245
G1 X-55.273 Y21.066 E19.35997
G1 X-55.085 Y20.321 E19.3983
G1 X-55.028 Y20.164 E19.40663
G1 X-54.803 Y19.661 E19.43412
G1 X-54.507 Y19.196 E19.46162
G1 X-54.148 Y18.779 E19.48908
G1 X-53.732 Y18.418 E19.51655
G1 X-53.057 Y18.015 E19.55578
G1 X-24.717 Y4.85 E21.11477
G1 X-24.314 Y4.61 E21.13817
G1 X-24.043 Y4.385 E21.15575
G1 X-23.815 Y4.126 E21.17296
G1 X-23.612 Y3.802 E21.19204
G1 X-23.473 Y3.475 E21.20976
G1 X-23.385 Y3.114 E21.2283
G1 X-23.357 Y2.743 E21.24686
G1 X-23.39 Y2.372 E21.26545
G1 X-23.488 Y2 E21.28464
G1 X-23.652 Y1.642 E21.30428
G1 X-23.897 Y1.284 E21.32593
G1 X-24.074 Y1.099 E21.3387
G1 X-24.373 Y0.865 E21.35764
G1 X-24.677 Y0.696 E21.375
G1 X-25.18 Y0.515 E21.40167
G1 X-55.26 Y-7.591 E22.9559
G1 X-55.78 Y-7.772 E22.98337
G1 X-56.269 Y-8.027 E23.01088
G1 X-56.715 Y-8.35 E23.03836
G1 X-57.11 Y-8.734 E23.06584
G1 X-57.563 Y-9.362 E23.10447
G1 X-57.646 Y-9.506 E23.11276
G1 X-57.886 Y-10.002 E23.14025
G1 X-58.052 Y-10.528 E23.16777
G1 X-58.139 Y-11.072 E23.19526
G1 X-58.148 Y-11.623 E23.22275
G1 X-58.023 Y-12.393 E23.26167
G1 X-56.783 Y-16.995 E23.49945
G1 X-56.602 Y-17.515 E23.52692
G1 X-56.347 Y-18.003 E23.55439
G1 X-56.024 Y-18.45 E23.5819
G1 X-55.64 Y-18.845 E23.60939
G1 X-55.012 Y-19.298 E23.64802
G1 X-54.868 Y-19.381 E23.65631
G1 X-54.372 Y-19.621 E23.6838
G1 X-53.846 Y-19.787 E23.71132
G1 X-53.302 Y-19.874 E23.73881
G1 X-52.751 Y-19.883 E23.7663
G1 X-51.981 Y-19.758 E23.80522
G1 X-21.8 Y-11.625 E25.36467
G1 X-21.343 Y-11.551 E25.38776
G1 X-20.998 Y-11.549 E25.40498
G1 X-20.646 Y-11.603 E25.42274
G1 X-20.294 Y-11.715 E25.44117
G1 X-19.973 Y-11.88 E25.45918
G1 X-19.674 Y-12.1 E25.4777
G1 X-19.408 Y-12.371 E25.49664
G1 X-19.201 Y-12.669 E25.51474
G1 X-19.037 Y-13.016 E25.53389
G1 X-18.931 Y-13.4 E25.55377
G1 X-18.89 Y-13.817 E25.57467
G1 X-18.907 Y-14.096 E25.58862
G1 X-18.984 Y-14.458 E25.60708
G1 X-19.109 Y-14.785 E25.62455
G1 X-19.381 Y-15.252 E25.65151
G1 X-37.208 Y-40.789 E27.20528
G1 X-37.49 Y-41.262 E27.23276
G1 X-37.7 Y-41.772 E27.26027
G1 X-37.835 Y-42.306 E27.28775
G1 X-37.89 Y-42.854 E27.31523
G1 X-37.831 Y-43.64 E27.35455
G1 X-37.801 Y-43.806 E27.36297
G1 X-37.664 Y-44.339 E27.39043
G1 X-37.452 Y-44.848 E27.41793
G1 X-37.168 Y-45.32 E27.44542
G1 X-36.818 Y-45.746 E27.47292
G1 X-36.237 Y-46.246 E27.51117
G1 X-32.331 Y-48.972 E27.7488
G1 X-31.857 Y-49.254 E27.77632
G1 X-31.348 Y-49.464 E27.80379
G1 X-30.814 Y-49.599 E27.83127
G1 X-30.265 Y-49.654 E27.85879
G1 X-29.48 Y-49.595 E27.89807
G1 X-29.314 Y-49.565 E27.90648
G1 X-28.781 Y-49.428 E27.93394
G1 X-28.272 Y-49.216 E27.96145
G1 X-27.8 Y-48.932 E27.98893
G1 X-27.374 Y-48.582 E28.01644
G1 X-26.874 Y-48.001 E28.05468
G1 X-8.985 Y-22.373 E29.61395
G1 X-8.684 Y-22.024 E29.63694
G1 X-8.421 Y-21.802 E29.65411
G1 X-8.107 Y-21.612 E29.67242
G1 X-7.772 Y-21.474 E29.6905
G1 X-7.418 Y-21.392 E29.70863
G1 X-7.05 Y-21.369 E29.72702
G1 X-6.673 Y-21.406 E29.74592
G1 X-6.328 Y-21.499 E29.76375
G1 X-5.967 Y-21.665 E29.78357
G1 X-5.649 Y-21.884 E29.80283
G1 X-5.344 Y-22.184 E29.82418
G1 X-5.178 Y-22.407 E29.83805
G1 X-5.007 Y-22.73 E29.85628
G1 X-4.893 Y-23.061 E29.87375
G1 X-4.8 Y-23.594 E29.90074
G1 X-2.041 Y-54.618 E31.45464
G1 X-1.953 Y-55.161 E31.48208
G1 X-1.786 Y-55.687 E31.50962
G1 X-1.546 Y-56.183 E31.53711
G1 X-1.236 Y-56.638 E31.56458
G1 X-.716 Y-57.178 E31.60198
G1 X-.59 Y-57.285 E31.61022
G1 X-.145 Y-57.61 E31.63772
G1 X0.342 Y-57.867 E31.66519
G1 X0.861 Y-58.052 E31.69268
G1 X1.402 Y-58.159 E31.72019
G1 X2.206 Y-58.173 E31.76031
G1 X6.955 Y-57.751 E31.99817
G1 X7.499 Y-57.663 E32.02566
G1 X8.025 Y-57.496 E32.0532
G1 X8.52 Y-57.256 E32.08064
G1 X8.976 Y-56.947 E32.10812
G1 X9.516 Y-56.426 E32.14556
G1 X9.623 Y-56.3 E32.15381
G1 X9.948 Y-55.855 E32.1813
G1 X10.205 Y-55.368 E32.20877
G1 X10.39 Y-54.849 E32.23626
G1 X10.497 Y-54.308 E32.26377
G1 X10.511 Y-53.503 E32.30394
G1 X7.75 Y-22.477 E33.85795
G1 X7.747 Y-21.934 E33.88504
G1 X7.801 Y-21.589 E33.90246
G1 X7.91 Y-21.249 E33.92027
G1 X8.039 Y-20.991 E33.93467
G1 X8.285 Y-20.643 E33.95593
G1 X8.557 Y-20.375 E33.97498
G1 X8.882 Y-20.148 E33.99476
G1 X9.212 Y-19.992 E34.01297
G1 X9.569 Y-19.891 E34.03148
G1 X9.937 Y-19.849 E34.04996
G1 X10.294 Y-19.866 E34.06779
G1 X10.667 Y-19.946 E34.08682
G1 X10.999 Y-20.075 E34.10459
G1 X11.298 Y-20.248 E34.12182
G1 X11.646 Y-20.53 E34.14417
G1 X33.788 Y-42.605 E35.70404
G1 X34.205 Y-42.965 E35.73153
G1 X34.67 Y-43.26 E35.759
G1 X35.173 Y-43.486 E35.78651
G1 X35.703 Y-43.636 E35.81399
G1 X36.471 Y-43.714 E35.85251
G1 X36.637 Y-43.714 E35.86079
G1 X37.187 Y-43.674 E35.8883
G1 X37.725 Y-43.555 E35.91579
G1 X38.24 Y-43.359 E35.94328
G1 X38.721 Y-43.091 E35.97075
G1 X39.328 Y-42.597 E36.0098
G1 X42.693 Y-39.222 E36.24757
G1 X43.053 Y-38.805 E36.27505
G1 X43.348 Y-38.34 E36.30253
G1 X43.574 Y-37.837 E36.33004
G1 X43.724 Y-37.307 E36.35752
G1 X43.802 Y-36.539 E36.39603
G1 X43.802 Y-36.373 E36.40431
G1 X43.762 Y-35.823 E36.43183
G1 X43.643 Y-35.285 E36.45932
G1 X43.447 Y-34.77 E36.48681
G1 X43.179 Y-34.289 E36.51428
G1 X42.685 Y-33.682 E36.55332
G1 X20.54 Y-11.599 E38.11359
G1 X20.261 Y-11.257 E38.13561
G1 X20.085 Y-10.955 E38.15305
G1 X19.957 Y-10.627 E38.17061
G1 X19.877 Y-10.259 E38.1894
G1 X19.859 Y-9.897 E38.20748
G1 X19.899 Y-9.534 E38.2257
G1 X19.999 Y-9.177 E38.2442
G0 F9000 X19.623 Y-9.036
G1 F1500 X19.813 Y-8.633 E38.26643
G1 X20.067 Y-8.266 E38.28869
G1 X20.391 Y-7.936 E38.31177
G1 X20.793 Y-7.648 E38.33644
G1 X21.094 Y-7.497 E38.35324
G1 X21.493 Y-7.368 E38.37416
G1 X21.908 Y-7.302 E38.39512
G1 X22.505 Y-7.304 E38.42491
G1 X53.547 Y-9.974 E39.97932
G1 X54.068 Y-9.979 E40.00531
G1 X54.583 Y-9.904 E40.03128
G1 X55.082 Y-9.751 E40.05732
G1 X55.551 Y-9.524 E40.08331
G1 X56.017 Y-9.197 E40.11171
G1 X56.144 Y-9.091 E40.11997
G1 X56.517 Y-8.728 E40.14593
G1 X56.83 Y-8.311 E40.17195
G1 X57.076 Y-7.852 E40.19793
G1 X57.249 Y-7.36 E40.22395
G1 X57.352 Y-6.773 E40.25368
G1 X57.761 Y-2.024 E40.49148
G1 X57.766 Y-1.503 E40.51748
G1 X57.691 Y-.987 E40.54349
G1 X57.538 Y-.489 E40.56948
G1 X57.311 Y-0.02 E40.59548
G1 X56.984 Y0.447 E40.62392
G1 X56.878 Y0.574 E40.63217
G1 X56.515 Y0.947 E40.65814
G1 X56.098 Y1.26 E40.68415
G1 X55.639 Y1.506 E40.71013
G1 X55.147 Y1.679 E40.73615
G1 X54.56 Y1.782 E40.76589
G1 X23.408 Y4.464 E42.32582
G1 X22.882 Y4.564 E42.35253
G1 X22.512 Y4.697 E42.37214
G1 X22.141 Y4.899 E42.39322
G1 X21.791 Y5.17 E42.4153
G1 X21.506 Y5.478 E42.43624
G1 X21.261 Y5.845 E42.45825
G1 X21.083 Y6.239 E42.47982
G1 X20.969 Y6.666 E42.50187
G1 X20.927 Y7.117 E42.52447
G1 X20.963 Y7.568 E42.54704
G1 X21.086 Y8.049 E42.57181
G1 X21.218 Y8.352 E42.5883
G1 X21.455 Y8.731 E42.6106
G1 X21.719 Y9.034 E42.63065
G1 X22.169 Y9.41 E42.65991
G1 X47.673 Y27.324 E44.21482
G1 X48.075 Y27.655 E44.2408
G1 X48.422 Y28.044 E44.26681
G1 X48.706 Y28.481 E44.29281
G1 X48.919 Y28.957 E44.31883
G1 X49.068 Y29.517 E44.34774
G1 X49.097 Y29.682 E44.35609
G1 X49.147 Y30.201 E44.38211
G1 X49.118 Y30.721 E44.40809
G1 X49.01 Y31.231 E44.4341
G1 X48.825 Y31.718 E44.46009
G1 X48.53 Y32.225 E44.48935
G1 X45.792 Y36.123 E44.72701
G1 X45.461 Y36.526 E44.75303
G1 X45.072 Y36.872 E44.779
G1 X44.635 Y37.156 E44.805
G1 X44.159 Y37.369 E44.83102
G1 X43.599 Y37.518 E44.85993
G1 X43.434 Y37.547 E44.86829
G1 X42.915 Y37.597 E44.8943
G1 X42.395 Y37.568 E44.92028
G1 X41.885 Y37.46 E44.94629
G1 X41.398 Y37.275 E44.97228
G1 X40.891 Y36.98 E45.00155
G1 X15.398 Y19.074 E46.55578
G1 X14.876 Y18.768 E46.58597
G1 X14.496 Y18.621 E46.6063
G1 X14.081 Y18.532 E46.62747
G1 X13.742 Y18.51 E46.64442
G1 X13.25 Y18.557 E46.66908
G1 X12.803 Y18.679 E46.69219
G1 X12.395 Y18.871 E46.71469
G1 X12.037 Y19.118 E46.73639
G1 X11.721 Y19.425 E46.75837
G1 X11.465 Y19.772 E46.77988
G1 X11.267 Y20.157 E46.80148
G1 X11.133 Y20.569 E46.8231
G1 X11.069 Y20.984 E46.84405
G1 X11.07 Y21.383 E46.86395
G1 X11.155 Y21.917 E46.89093
G1 X19.201 Y52.123 E48.45046
G1 X19.297 Y52.635 E48.47645
G1 X19.312 Y53.156 E48.50245
G1 X19.248 Y53.673 E48.52844
G1 X19.106 Y54.175 E48.55447
G1 X18.857 Y54.705 E48.58368
G1 X18.774 Y54.848 E48.59193
G1 X18.478 Y55.277 E48.61794
G1 X18.121 Y55.656 E48.64391
G1 X17.709 Y55.976 E48.66994
G1 X17.254 Y56.23 E48.69594
G1 X16.709 Y56.426 E48.72483
G1 X12.103 Y57.654 E48.96265
G1 X11.591 Y57.75 E48.98864
G1 X11.07 Y57.765 E49.01464
G1 X10.552 Y57.701 E49.04068
G1 X10.051 Y57.559 E49.06666
G1 X9.52 Y57.31 E49.09592
G1 X9.377 Y57.227 E49.10417
G1 X8.948 Y56.931 E49.13018
G1 X8.569 Y56.574 E49.15615
G1 X8.249 Y56.162 E49.18218
G1 X7.995 Y55.707 E49.20818
G1 X7.799 Y55.161 E49.23712
G1 X-.251 Y24.947 E50.79709
G1 X-.439 Y24.454 E50.82341
G1 X-.642 Y24.098 E50.84385
G1 X-.898 Y23.779 E50.86426
G1 X-1.224 Y23.482 E50.88626
G1 X-1.586 Y23.247 E50.90779
G1 X-1.977 Y23.076 E50.92909
G1 X-2.408 Y22.966 E50.95128
G1 X-2.841 Y22.929 E50.97296
G1 X-3.292 Y22.966 E50.99553
G1 X-3.742 Y23.083 E51.01873
G1 X-4.181 Y23.282 E51.04278
G1 X-4.472 Y23.474 E51.06017
G1 X-4.786 Y23.757 E51.08126
G1 X-5.046 Y24.077 E51.10183
G1 X-5.349 Y24.606 E51.13225
G1 X-18.551 Y52.815 E52.6861
G1 X-18.807 Y53.269 E52.7121
G1 X-19.13 Y53.678 E52.7381
G1 X-19.511 Y54.033 E52.76408
G1 X-19.943 Y54.326 E52.79013
G1 X-20.494 Y54.579 E52.82038
G1 X-20.652 Y54.635 E52.82874
G1 X-21.155 Y54.771 E52.85473
G1 X-21.673 Y54.828 E52.88073
G1 X-22.194 Y54.806 E52.90675
G1 X-22.705 Y54.704 E52.93275
G1 X-23.228 Y54.51 E52.96058
G1 X-27.543 Y52.492 E53.19823
G1 X-27.997 Y52.236 E53.22423
G1 X-28.406 Y51.913 E53.25023
G1 X-28.762 Y51.531 E53.27629
G1 X-29.054 Y51.1 E53.30226
G1 X-29.308 Y50.548 E53.33257
G1 X-29.364 Y50.39 E53.34094
G1 X-29.5 Y49.887 E53.36693
G1 X-29.557 Y49.369 E53.39293
G1 X-29.535 Y48.848 E53.41895
